X:1
T:Two-Part Invention No.8 in F Major
T:Двухголосная инвенция №8 фа мажор
T:И.С. Бах
T:BWV 779
C:J.S Bach
%%score { ( 1 3 ) | 2 }
L:1/8
Q:1/4=120
M:3/4
K:F
V:1 treble nm="Piano" snm="Pno."
V:3 treble 
V:2 bass 
V:1
"^Presto e leggiero possibile* [Скоро и легко как только возможно]""^1""_System Text" z!f!"^Тема\n""^Экспозиция" .!1!F.!2!A.!1!F.!3!c.!1!F | %1
 !>!.!5!f !4!e/d/ !2!c/!4!d/c/B/ !1!A/!4!B/A/G/ | z x x4 | %3
 !>!.!2!a/ (!4!c'/b/c'/ !2!a/c'/b/c'/ a/c'/b/c'/ | %4
 !>!.!1!f/)!p! (!4!a/!<(!g/a/ !2!f/a/g/a/ f/a/g/a/ | !>!.d/) (!4!f/e/f/ !2!d/f/e/f/ d/f/e/f/!<)! | %6
!mp! .!2!=B) .!1!G.!3!d!<(!.!1!B.!4!f.!2!d!<)! | %7
!mf! (!>!!3!g/a/g/f/ !1!e/!4!f/e/d/ !1!c/!4!d/c/_B/ | %8
"_cresc." !>!.A) (!4!d/c/ =B/!4!c/B/A/ G/!4!A/G/F/ | E/!4!F/E/D/ .C) (!5!c/!4!=B/.!5!c).!1!E | %10
!f! .!2!F.!5!c .!1!E.!5!c .!1!D.!4!=B || !5!c2!f!"^Разработка""^2" z2 z2 | %12
 z"^Тема\n" .!1!c.!2!e.c.!3!g.c | !>!.!5!c' (!4!=b/a/ !2!g/!4!a/g/f/ !1!e/!4!f/e/d/ | %14
 c/)!p!"^meno legato"!2!_B/!1!c/!<(!a/ .!1!c/a/.!1!B/a/ .c/a/.A/a/ | %15
 .B!<)!!mf! .!1!G.!2!B.G.!3!d.G | !>!.!5!g !3!f/_e/ !1!d/!3!e/d/!1!c/ !2!B/!4!c/!3!B/A/ | %17
 z!<(! x x4!<)! |!f! !>!.b!<(! .^c.b.c.b.c!<)!!p! |!mp! .!2!d .!1!A!<(!.!4!f.!2!d.!5!a.!2!f!<)! | %20
!mf! .!3!g/"_meno legato"(f/g/b/!<(! .c/)b/.d/b/ .!2!e/b/.c/b/ | %21
 .!3!f/(e/f/a/ .!1!=B/)a/.!2!^c/a/ .!2!d/a/.B/a/ | .e/(d/e/g/ .A/)g/.!1!=B/g/ .!2!^c/g/.A/g/!<)! | %23
!f! .!4!f"_dim." .!2!d.!1!_B.!3!d.!1!G.f | .!4!e.!2!c.!1!A.!3!c.F._e || %25
"^3""^Реприза"!mf! .!2!d/!p! (!4!f/!3!_e/f/ !2!d/f/e/f/ d/f/e/f/ | %26
 !>!.!1!B/)!<(!(!4!d/!3!c/d/ !2!B/d/c/d/ B/d/c/d/ | !>!.G/)(!4!B/A/B/ !2!G/B/A/B/ G/B/A/B/!<)! | %28
!mf! .E)!<(! .!1!C.!4!G.!1!E.!3!B.!2!G!<)! | (!>!!4!c/d/c/B/ !2!A/!4!B/A/G/ !1!F/G/F/_E/ | %30
"_cresc." !>!.D) (G/F/ !1!E/!4!F/E/D/ C/!4!D/C/B,/ | A,/!4!B,/A,/G,/ .F,) (!5!F/!4!E/.!5!F).A, | %32
!f![Q:1/4=114]"_rit." .!2!B,[Q:1/4=108].!5!F[Q:1/4=102] .!1!A,[Q:1/4=96].!5!F[Q:1/4=90] .!1!G,[Q:1/4=84].!4!E | %33
 [A,CF]2 z2 z2 |] %34
V:2
 z6 | z"^Тема" .!5!F,.A,.F,.!2!C.F, | !>!.!1!F (!2!E/D/ !4!C/!1!D/C/B,/ !4!A,/!2!B,/A,/G,/ | %3
 .F,) .!3!A,.!1!C.!5!A,.!1!F.!5!C | !>!.!3!A/[K:treble] (!1!c/!2!B/!1!c/ !3!A/c/B/c/ A/c/B/c/ | %5
 !>!.!4!F/)(!2!A/!3!G/!1!A/ !3!F/A/G/A/ F/A/G/A/ | %6
 !>!.!4!D/)(!2!F/!3!E/!1!F/ !3!D/F/E/F/ D/F/E/F/ | .!4!=B,)[K:bass] .G,.!2!C!<(!.G,.!1!E.!3!C!<)! | %8
 (!>!!2!F/G/F/E/ !4!D/!1!E/D/C/ !4!=B,/!1!C/B,/A,/ | %9
 !>!.G,)(C/=B,/ !3!A,/!1!B,/A,/G,/ !4!F,/!1!G,/F,/E,/ | %10
 !4!D,/!3!E,/D,/C,/) (!1!G,/F,/E,/F,/ .G,).G,, || z"_Тема" .C,.!3!E,.C,.!2!G,.C, | %12
 .!1!C (!2!=B,/A,/ !4!G,/!1!A,/G,/F,/ !4!E,/!2!F,/E,/D,/ | .C,) !3!E,!1!G,!4!E,!1!C!4!G, | %14
"_* То есть, насколько это согласуется с ясностью." !>!._E ^F,EF,E!5!F, | %15
 !>!.!1!G, (!2!=F,/_E,/ !4!D,/!3!E,/!1!D,/C,/ !3!B,,/!2!C,/B,,/A,,/ | %16
 .!5!G,,) .!1!G,.!2!B,.!4!G,.!1!D.!5!G, | !>!.G (!2!F/!3!_E/ !4!D/!3!E/!1!D/C/ B,/!1!C/B,/A,/ | %18
 !4!G,/)"_meno legato"!5!F,/G,/=E/ .!3!G,/E/.!4!F,/E/ .!3!G,/E/.!5!E,/E/ | %19
 !4!F,/E,/F,/D/ .!3!F,/D/.!4!E,/D/ .!3!F,/D/.!5!D,/D/ | .B, .!3!G,.E,.!1!G,.!4!C,.!2!E, | %21
 .A, .!2!F,.!3!D,.F,.=B,,.D, | .G, !2!E,!3!^C,E,!4!A,,!2!C, | %23
 .D,,/(D,/=C,/D,/ .!5!G,,/)D,/.A,,/D,/ .B,,/D,/.G,,/D,/ | %24
 .C,,/(C,/B,,/C,/ .!5!F,,/)C,/.G,,/C,/ .A,,/C,/.F,,/C,/ || .B,, .!3!D,.!1!F,.!5!D,.!2!B,.!4!F, | %26
 !>!.!3!D/ (!1!F/!2!_E/!1!F/ !3!D/F/E/F/ D/F/E/F/ | %27
 !>!.!4!B,/)(!1!D/!2!C/D/ !3!B,/D/C/D/ B,/D/C/D/ | %28
 !>!.!4!G,/)(!2!B,/!3!A,/!2!B,/ G,/B,/A,/B,/ G,/B,/A,/B,/ | !4!E,) .!5!C,.!2!F,.C,.!1!A,.!4!F, | %30
 (!>!!2!B,/C/B,/A,/ !4!G,/!1!A,/G,/F,/ !4!E,/!1!F,/E,/D,/ | %31
 !>!.C,) (!1!F,/E,/ D,/!1!E,/D,/C,/ B,,/!1!C,/B,,/A,,/ | %32
 !4!G,,/A,,/G,,/!5!F,,/) (!1!C,/B,,/A,,/B,,/ .C,).C,, | F,,2 z2 z2 |] %34
V:3
 x6 | x6 | .F .!2!A.c.A.f.!1!c | x6 | x6 | x6 | x6 | x6 | x6 | x6 | x6 || x6 | x6 | x6 | x6 | x6 | %16
 x6 | .G .!2!B.!3!d.!1!B.!3!g.!2!d | x6 | x6 | x6 | x6 | x6 | x6 | x6 || x6 | x6 | x6 | x6 | x6 | %30
 x6 | x6 | x6 | x6 |] %34

